X: 41
T: Pollonesse #41
M: 3/4
L: 1/16
K: Gm
Q:120
|(GA)(Bc) d4 g2a2|b2(bg) a2af g2a2|b2(bg) a2af g2a2|b2(bg) a2af g4|
d2e2 d2c2 B2A2|G2(GB) AGFE DEFG|(GA)(Bc) d4 g2a2|b2(bg) a2af g2a2|
b2(bg) a2af g2a2|b2(bg) a2af g4|d2e2 d2c2 B2A2|BcdB G4G,4:|
|:[D4B4](cB)(AB) (cB)(AB)|(d2e2) (f2g2) (a2b2)|f3e d2de d4|(d2c2) (c2B2) (A2F2)|
G2(GB) AGFE D4| d2(dB) c2(cA) B2(Bc)|cBAG FAG2 G,4:|
N: Sista takten är en tolkning av noterna, enligt noterna ska näst sista tonen vara
N: en fjärdedel vilket gör att takten inte går jämt ut. Pollonessen står nedtecknad
N: i Dm men jag har lagt till ett b-förtecken då jag tycker det låter bättre.

